COMMANDS

MOBIUS

100 100
1000 0
1 1 
-100 -100

PENCOLOR 150
FORWARD 10
RIGHT 10
FORWARD 10
RIGHT 10
FORWARD 10
RIGHT 10
FORWARD 10
RIGHT 10
FORWARD 10
RIGHT 10
FORWARD 10
RIGHT 10
FORWARD 10
RIGHT 10
FORWARD 10
RIGHT 10
FORWARD 10
RIGHT 10
FORWARD 10
RIGHT 10
FORWARD 10
RIGHT 10
FORWARD 10
RIGHT 10
FORWARD 10
RIGHT 10
FORWARD 10
RIGHT 10
FORWARD 10
RIGHT 10
FORWARD 10
RIGHT 10
FORWARD 10
RIGHT 10
FORWARD 10
RIGHT 10
FORWARD 10
RIGHT 10
FORWARD 10
RIGHT 10
FORWARD 10
RIGHT 10
FORWARD 10
RIGHT 10
FORWARD 10
RIGHT 10
FORWARD 10
RIGHT 10
FORWARD 10
RIGHT 10
FORWARD 10
RIGHT 10
FORWARD 10
RIGHT 10
FORWARD 10
RIGHT 10
FORWARD 10
RIGHT 10
FORWARD 10
RIGHT 10
FORWARD 10
RIGHT 10
FORWARD 10
RIGHT 10
FORWARD 10
RIGHT 10
FORWARD 10
RIGHT 10
FORWARD 10
RIGHT 10
FORWARD 10
RIGHT 10

PENUP
FORWARD 10
FORWARD 10
FORWARD 10
FORWARD 10
PENDOWN

FORWARD 100
RIGHT 90
FORWARD 100
RIGHT 90
FORWARD 100
RIGHT 90
FORWARD 100
RIGHT 90

