COMMANDS


PENCOLOR 150
FORWARD 10
RIGHT 10
FORWARD 10
RIGHT 10
FORWARD 10
RIGHT 10
FORWARD 10
RIGHT 10
FORWARD 10
RIGHT 10
FORWARD 10
RIGHT 10
FORWARD 10
RIGHT 10
FORWARD 10
RIGHT 10
FORWARD 10
RIGHT 10
FORWARD 10
RIGHT 10
FORWARD 10
RIGHT 10
FORWARD 10
RIGHT 10
FORWARD 10
RIGHT 10
FORWARD 10
RIGHT 10
FORWARD 10
RIGHT 10
FORWARD 10
RIGHT 10
FORWARD 10
RIGHT 10
FORWARD 10
RIGHT 10
FORWARD 10
RIGHT 10
FORWARD 10
RIGHT 10
FORWARD 10
RIGHT 10
FORWARD 10
RIGHT 10
FORWARD 10
RIGHT 10
FORWARD 10
RIGHT 10
FORWARD 10
RIGHT 10
FORWARD 10
RIGHT 10
FORWARD 10
RIGHT 10
FORWARD 10
RIGHT 10
FORWARD 10
RIGHT 10
FORWARD 10
RIGHT 10
FORWARD 10
RIGHT 10
FORWARD 10
RIGHT 10
FORWARD 10
RIGHT 10
FORWARD 10
RIGHT 10
FORWARD 10
RIGHT 10
FORWARD 10
RIGHT 10

PENUP
FORWARD 10
FORWARD 10
FORWARD 10
FORWARD 10
PENDOWN

FORWARD 100
RIGHT 90
FORWARD 100
RIGHT 90
FORWARD 100
RIGHT 90
FORWARD 100
RIGHT 90

