SCRIPT

to psu 
	pu toggle pu toggle
end

to psd
	pd toggle pd toggle
end

to circle :step
	repeat 360 [
		fd :step
		lt 1
	]
end

to setpens :col
	setpencolor :col
	toggle
	setpencolor :col
	toggle
end

to ortocircle :side :invrad
	fd :side
	while getx * getx + gety * gety > :invrad * :invrad 
		[
			rt 1
			fd :side
		]
end

to main 
	make "radius 100
	inverse 0 0 :radius
	psu
	fd :radius
	psd
	ortocircle 2 :radius
end
